!!!COM:	Martin
!!!OTL:	539_Mai-11/2/1-[1]1
**kern	**kern	**kern	**kern
*part3	*part3	*part2	*part1
*staff4	*staff3	*staff2	*staff1
*I"Piano	*	*I"Violoncello	*I"Violin
*I'Pno.	*	*I'Vc.	*I'Vln.
*clefF4	*clefG2	*clefF4	*clefG2
*k[b-]	*k[b-]	*k[b-]	*k[b-]
*F:	*F:	*F:	*F:
*M3/4	*M3/4	*M3/4	*M3/4
=1	=	=	=
4r	4r	2.r	2.r
4r	4r	.	.
[4GGG^^	[4b-^^ [4ff	.	.
=2	=2	=2	=2
4GGG]	4b-] 4ff]	2.r	2.r
2GGG	2b- 2ff	.	.
=3	=3	=3	=3
4GGG	4b- 4ff	2.r	2.r
2GGG^^	2b-^^ 2ff	.	.
=4	=4	=4	=4
2GGG	2b- 2ff	4r	4r
.	.	4r	4r
4GGG	4b- 4ff	(12DL	(12ddL
.	.	12E	12ee
.	.	12FJ	12ffJ
=5	=5	=5	=5
2GGG^^	2b-^^ 2ff	8GL	8ggL
.	.	8B-J	8bb-J
.	.	8AL	8aaL
.	.	8GJ	8ggJ
[4GGG	[4b- [4ff	8FL	8ffL
.	.	8GJ)	8ggJ)
=6	=6	=6	=6
4GGG]	4b-] 4ff]	(8AL	(8aaL
.	.	8eJ	8eeeJ
4GGG	4b- 4ff	8fL	8fffL
.	.	8gJ	8gggJ
[4GGG^^	[4b-^^ [4ff	8fL	8fffL
.	.	8dJ)	8dddJ)
=7	=7	=7	=7
!!linebreak:original
4GGG]	4b-] 4ff]	(8dL	(8dddL
.	.	8cJ	8cccJ
2GGG	2b- 2ff	8B-L	8bb-L
.	.	8GJ)	8ggJ)
.	.	(8GL	(8ggL
.	.	8EJ)	8eeJ)
=8	=8	=8	=8
4GGG	4b- 4ff	(4F~	(4ff~
2GGG^^	2b-^^ 2ff	4F~)	4ff~)
.	.	(12DL	(12ddL
.	.	12E	12ee
.	.	12FJ	12ffJ
=9	=9	=9	=9
2GGG	2b- 2ff	8GL	8ggL
.	.	8B-J	8bb-J
.	.	8AL	8aaL
.	.	8GJ	8ggJ
4GGG	4b- 4ff	8FL	8ffL
.	.	8GJ)	8ggJ)
=10	=10	=10	=10
2GGG^^	2b-^^ 2ff	(8AL	(8aaL
.	.	8eJ	8eeeJ
.	.	8fL	8fffL
.	.	8gJ	8gggJ
[4GGG	[4b- [4ff	8fL	8fffL
.	.	8dJ)	8dddJ)
=11	=11	=11	=11
4GGG]	4b-] 4ff]	(8dL	(8dddL
.	.	8cJ	8cccJ
4GGG	4b- 4ff	8B-L)	8bb-L)
.	.	(8G~J	(8gg~J
[4GGG^^	[4b-^^ [4ff	8G~L	8gg~L
.	.	8G~J)	8gg~J)
=12	=12	=12	=12
4GGG]	4b-] 4ff]	2G	2gg
2CC^^	2b-^^ 2ff	.	.
*	*	*clefC4	*
.	.	(12dL)	(12dddL)
.	.	12e	12eee
.	.	12fJ	12fffJ
==	==	==	==
*-	*-	*-	*-
!!!system-decoration: [(s1,s2)]{(s3,s4)}
!!!ONB: Converted from MusicXML on 2020/01/17
